X: 1422
T: An tSli Chun An Tobair
R: reel
M: 4/4
K: Dminor
|:dAAG ~A2 Ac|dAAd cAGc|dAAG ~A2 Ac|GECD EDEc|
dAAG ~A2 Ac|dAAd cAGc|~G3 E CG cd|1 ecde cA Gc:|2 ecde cA G2||
|:Addc defg|addc dfed|ecAG A2 cd|eaag edcG|
Addc ~d2 de|fage ~f3 g|afge ~f2 fa|1 g2 ga gecG:|2 ~g3 a gece||"CODA" d8||

